packages/kaspersky-hexa-ui-icons/src/iconsSVGs/48/ManagementConsole.svg

<svg xmlns="http://www.w3.org/2000/svg" width="48" height="48" fill="none" viewBox="0 0 48 48"><path fill="currentColor" fill-rule="evenodd" d="M45.0049 35.15v-2.5c0-3.5899-2.9102-6.5-6.5-6.5-3.5899 0-6.5 2.9101-6.5 6.5v2.5h-3v13h19v-13zm-11-2.5c0-2.4853 2.0147-4.5 4.5-4.5 2.4852 0 4.5 2.0147 4.5 4.5v2.5h-1v-2.5c0-1.933-1.5671-3.5-3.5-3.5s-3.5 1.567-3.5 3.5v2.5h-1zm6 2.5h-3v-2.5c0-.8284.6715-1.5 1.5-1.5s1.5.6716 1.5 1.5zm6 2v5h-15v-5zm-10.59 7h2.18l-2 2h-2.18zm-4.41 1.59v-1.59h1.5899zm9.41-1.59h2.18l-2 2h-2.18zm3 2 2-2h.59v2zm-41.41-2.4c-.1487-4.0296 2.401-7.6662 6.24-8.9l4.4-1.21a11.77 11.77 0 0 0 6.63-5.83c2.9279 1.8088 6.6311 1.7894 9.5399-.05a14 14 0 0 0 1.1901 1.91l1.6-1.2a11.34 11.34 0 0 1-1.19-2c3.8999-3.64 5.59-10.32 5.59-14.47 0-6.6274-5.3726-12-12-12-6.6275 0-12 5.3726-12 12 0 4.18 1.73 10.91 5.68 14.57-1.23 2.47-3.4501 4.56-5.55 5.14l-4.43 1.22c-4.7 1.4757-7.8457 5.8961-7.7 10.82v4.4h27v-2h-25zm12-31.75c0-5.5228 4.4771-10 10-10s10 4.4772 10 10c0 5.15-3 15.15-10 15.15s-10-10-10-15.15" clip-rule="evenodd"/></svg>

<svg width="48" height="48" viewBox="0 0 48 48" fill="none" xmlns="http://www.w3.org/2000/svg">
<path fill-rule="evenodd" clip-rule="evenodd" d="M45.0049 35.15V32.65C45.0049 29.0601 42.0947 26.15 38.5049 26.15C34.915 26.15 32.0049 29.0601 32.0049 32.65V35.15H29.0049V48.15H48.0049V35.15H45.0049ZM34.0049 32.65C34.0049 30.1647 36.0196 28.15 38.5049 28.15C40.9901 28.15 43.0049 30.1647 43.0049 32.65V35.15H42.0049V32.65C42.0049 30.717 40.4378 29.15 38.5049 29.15C36.5719 29.15 35.0049 30.717 35.0049 32.65V35.15H34.0049V32.65ZM40.0049 35.15H37.0049V32.65C37.0049 31.8216 37.6764 31.15 38.5049 31.15C39.3333 31.15 40.0049 31.8216 40.0049 32.65V35.15ZM46.0049 37.15V42.15H31.0049V37.15H46.0049ZM35.4149 44.15H37.5949L35.5949 46.15H33.4149L35.4149 44.15ZM31.0049 45.74V44.15H32.5948L31.0049 45.74ZM40.4149 44.15H42.5949L40.5949 46.15H38.4149L40.4149 44.15ZM43.4149 46.15L45.4149 44.15H46.0049V46.15H43.4149ZM2.00485 43.75C1.85625 39.7204 4.40596 36.0838 8.24485 34.85L12.6449 33.64C15.5276 32.6305 17.905 30.54 19.2749 27.81C22.2028 29.6188 25.906 29.5994 28.8148 27.76C29.1596 28.4276 29.5576 29.0663 30.0049 29.67L31.6049 28.47C31.1407 27.8459 30.7419 27.1757 30.4149 26.47C34.3148 22.83 36.0049 16.15 36.0049 12C36.0049 5.37258 30.6323 0 24.0049 0C17.3774 0 12.0049 5.37258 12.0049 12C12.0049 16.18 13.7349 22.91 17.6849 26.57C16.4549 29.04 14.2348 31.13 12.1349 31.71L7.70485 32.93C3.00499 34.4057 -0.140764 38.8261 0.0048506 43.75V48.15H27.0049V46.15H2.00485V43.75ZM14.0049 12C14.0049 6.47715 18.482 2 24.0049 2C29.5277 2 34.0049 6.47715 34.0049 12C34.0049 17.15 31.0049 27.15 24.0049 27.15C17.0049 27.15 14.0049 17.15 14.0049 12Z"  fill="currentColor"/>
</svg>
